assets/ayuda.svg

<svg width="30" height="28" viewBox="0 0 30 28" fill="none" xmlns="http://www.w3.org/2000/svg">
<path d="M19.2692 9.51282V9.51282C19.2692 12.168 17.1168 14.3205 14.4615 14.3205H11.2564M19.2692 9.51282V6.5C19.2692 3.73858 17.0307 1.5 14.2692 1.5H6C3.23858 1.5 1 3.73858 1 6.5V11.2544C1 12.6427 2.02773 13.8165 3.40385 14V14C4.77996 14.1835 5.80769 15.3573 5.80769 16.7456V17.2051V17.7562C5.80769 17.9216 5.99904 18.0136 6.1282 17.9103V17.9103L10.1148 14.721C10.4389 14.4617 10.8415 14.3205 11.2564 14.3205V14.3205M19.2692 9.51282H23.8846C26.646 9.51282 28.8846 11.7514 28.8846 14.5128V19.3318C28.8846 20.8907 27.7843 22.2329 26.2557 22.5386V22.5386C24.9406 22.8016 23.9194 23.8409 23.6795 25.1604L23.5275 25.9963M11.2564 14.3205V17.9744C11.2564 20.7358 13.495 22.9744 16.2564 22.9744H17.2194C18.3397 22.9744 19.4276 23.3506 20.3085 24.0428L22.7949 25.9963M22.7949 25.9963L23.0334 26.1837C23.2161 26.3273 23.4859 26.225 23.5275 25.9963V25.9963M22.7949 25.9963H23.5275" stroke="black" stroke-width="2"/>
</svg>

<svg xmlns="http://www.w3.org/2000/svg" width="30" height="28" fill="none"><path stroke="#000" stroke-width="2" d="M19.27 9.513a4.808 4.808 0 0 1-4.809 4.807h-3.205m8.013-4.807V6.5a5 5 0 0 0-5-5H6a5 5 0 0 0-5 5v4.754A2.77 2.77 0 0 0 3.404 14a2.77 2.77 0 0 1 2.404 2.746v1.01c0 .166.191.258.32.154l3.987-3.189c.324-.26.726-.4 1.141-.4m8.013-4.808h4.616a5 5 0 0 1 5 5v4.819a3.27 3.27 0 0 1-2.63 3.207 3.27 3.27 0 0 0-2.575 2.621l-.152.836M11.255 14.321v3.653a5 5 0 0 0 5 5h.963a5 5 0 0 1 3.09 1.069l2.486 1.953m0 0 .238.188a.308.308 0 0 0 .494-.188m-.732 0h.732"/></svg>
